packages/core/src/svgs/tokens/branded/KAN.svg

<svg width="24" height="24" viewBox="0 0 24 24" fill="none" xmlns="http://www.w3.org/2000/svg">
<path d="M20.952 16.4041C20.8865 16.5303 20.8258 16.6514 20.7614 16.7704C20.1128 17.9657 19.2274 19.0164 18.1591 19.8582C17.5518 20.3372 16.8912 20.7444 16.1901 21.0716C14.7678 21.7332 13.209 22.0492 11.6412 21.9938C9.54903 21.925 7.53239 21.1959 5.87991 19.911C5.05652 19.2736 4.33765 18.5116 3.7493 17.6525C3.42466 17.1834 3.14313 16.6857 2.90816 16.1659C2.7712 15.8576 2.68454 15.5292 2.65149 15.1936C2.61833 14.9179 2.64023 14.6384 2.71593 14.3714C2.82815 13.9941 3.0576 13.7052 3.38817 13.4958C3.67096 13.3163 3.97596 13.2052 4.31709 13.218C4.64766 13.2297 4.93489 13.3558 5.19489 13.5513C5.48601 13.7696 5.70046 14.0519 5.88935 14.3597C6.28806 15.015 6.74195 15.635 7.24605 16.2131C7.85885 16.9109 8.54609 17.5242 9.33444 18.0187C9.92315 18.3878 10.5572 18.6792 11.2206 18.886C11.6818 19.0304 12.1518 19.1303 12.6295 19.1954C13.1696 19.2687 13.7128 19.2943 14.2568 19.2703C14.913 19.2426 15.5586 19.1371 16.1957 18.9793C16.7385 18.8454 17.2686 18.6736 17.787 18.4665C18.4104 18.2219 19.0089 17.9179 19.5742 17.5587C20.0769 17.2354 20.5465 16.8725 20.932 16.4097C20.9337 16.4075 20.9386 16.408 20.952 16.4041ZM3.04982 7.58782C3.1276 7.44282 3.20205 7.29615 3.2815 7.15281C3.84166 6.1394 4.5739 5.23119 5.44545 4.46885C6.8558 3.22822 8.59004 2.41447 10.4456 2.12267C11.1238 2.01655 11.811 1.97914 12.4968 2.011C13.8575 2.07318 15.1907 2.41612 16.4125 3.01825C18.2975 3.94777 19.8432 5.44565 20.8314 7.3006C21.0248 7.66449 21.2031 8.03394 21.2909 8.44119C21.3659 8.79008 21.3936 9.14065 21.3197 9.49236C21.2798 9.69484 21.1992 9.88709 21.0826 10.0574C20.9661 10.2279 20.8162 10.3728 20.642 10.4834C20.4136 10.634 20.167 10.7407 19.8919 10.7724C19.5597 10.8107 19.2553 10.7318 18.9731 10.5596C18.6192 10.344 18.358 10.0401 18.1436 9.68901C17.6514 8.88508 17.0952 8.12895 16.4436 7.44504C15.7496 6.71724 14.969 6.10223 14.0723 5.63999C13.4251 5.30625 12.7354 5.06197 12.0223 4.91386C11.2667 4.75649 10.4944 4.69397 9.72338 4.72774C9.18722 4.75053 8.65832 4.82831 8.13442 4.94163C7.40935 5.09866 6.70053 5.32296 6.01713 5.61165C5.23378 5.94166 4.48931 6.34334 3.81819 6.87003C3.54992 7.07785 3.30346 7.31239 3.08261 7.57005L3.06039 7.59449C3.05686 7.59228 3.05334 7.59007 3.04982 7.58782Z" fill="#4A5EE0"/>
<path d="M12.0014 7.39452C14.5316 7.39119 16.5794 9.44572 16.5982 11.9613C16.6177 14.5336 14.5382 16.6553 12.0037 16.6564C9.46643 16.6576 7.41968 14.5469 7.40245 12.0285C7.38524 9.49291 9.44362 7.3873 12.0014 7.39452ZM14.2143 12.0013C14.2249 11.988 14.2298 11.9791 14.2366 11.9719C14.4893 11.7052 14.6398 11.3902 14.6821 11.0247C14.7294 10.66 14.6488 10.2903 14.4538 9.97851C14.1971 9.56628 13.6326 9.31513 13.1564 9.21902C13.1154 9.21068 13.1098 9.1929 13.1109 9.15568C13.1137 9.05233 13.1093 8.83178 13.1109 8.729C13.1115 8.68122 13.0932 8.66399 13.0448 8.66455C12.7637 8.66622 12.3365 8.67177 12.0559 8.67011C12.0098 8.67011 11.9987 8.68788 11.9999 8.72845C12.0021 8.82178 11.997 9.06623 11.9999 9.15957C12.0014 9.20735 11.9843 9.22624 11.9353 9.22568C11.5053 9.22457 11.3798 9.22179 10.9498 9.22235C10.9037 9.22235 10.8881 9.20346 10.8886 9.15957C10.8903 9.06623 10.8881 8.82178 10.8881 8.72845C10.8881 8.68677 10.8753 8.66622 10.8269 8.66678C10.5454 8.669 10.1181 8.66844 9.83693 8.66678C9.79026 8.66678 9.7747 8.68455 9.77587 8.72845C9.77755 8.81734 9.77366 9.05845 9.77755 9.14734C9.78028 9.20456 9.75979 9.22345 9.70301 9.22235C9.53138 9.21956 9.45697 9.22179 9.28528 9.22123C9.25084 9.22123 9.22195 9.21846 9.2225 9.27123C9.22473 9.55241 9.22528 9.97903 9.22195 10.2602C9.2214 10.3218 9.24418 10.3368 9.3014 10.3357C9.46916 10.3324 9.53968 10.3395 9.7069 10.3368C9.76135 10.3357 9.77755 10.3535 9.77755 10.408C9.77639 11.5913 9.77587 12.4085 9.77755 13.5914C9.77755 13.6536 9.75694 13.668 9.69977 13.667C9.52749 13.6636 9.45308 13.6658 9.2814 13.6653C9.24695 13.6653 9.22195 13.667 9.22195 13.7136C9.22195 14.0025 9.22029 14.4353 9.21861 14.7248C9.21861 14.7591 9.22972 14.7797 9.26917 14.7781C9.32306 14.7753 9.45697 14.7775 9.51025 14.7781H9.71637C9.762 14.7781 9.78079 14.8048 9.77924 14.8503C9.77639 14.9387 9.78248 15.1803 9.77924 15.2692C9.77755 15.3225 9.79479 15.3342 9.84976 15.3337C10.1738 15.3313 10.4979 15.3313 10.822 15.3337C10.872 15.3337 10.8892 15.3159 10.8886 15.2692C10.8876 15.1764 10.8908 14.9358 10.8886 14.843C10.8876 14.8002 10.8998 14.7781 10.9414 14.7781H11.7836L11.927 14.7792C11.9798 14.7792 12.0048 14.7975 12.0014 14.857C11.996 14.9497 12.0009 15.1903 11.9999 15.2831C11.9999 15.3198 12.0131 15.3337 12.0515 15.3337C12.3858 15.3326 12.72 15.3326 13.0543 15.3337C13.0932 15.3337 13.1115 15.3213 13.1109 15.2803C13.1098 15.1747 13.1143 14.9531 13.1109 14.8481C13.1093 14.8036 13.1231 14.788 13.1659 14.7769C13.2716 14.7491 13.5698 14.7219 13.671 14.682C14.5221 14.3425 14.9266 13.3508 14.5599 12.5096C14.4755 12.3212 14.3585 12.1491 14.2143 12.0013Z" fill="#4A5EE0"/>
<path d="M2.5377 11.3157C2.53104 11.1696 2.51826 11.024 2.51882 10.8779C2.52049 10.3985 2.60382 9.93351 2.77216 9.48342C2.99106 8.9001 3.33995 8.40508 3.79441 7.98062C4.40476 7.40934 5.09359 6.92818 5.84002 6.55169C6.50498 6.21774 7.20531 5.95944 7.92786 5.78167C8.4208 5.65937 8.92111 5.56899 9.42573 5.51111C10.1571 5.42593 10.8947 5.40696 11.6296 5.45445C11.7674 5.46333 11.9052 5.48 12.043 5.49334C12.0508 5.49388 12.0579 5.49777 12.0725 5.50166C10.1124 5.66611 8.30231 6.26168 6.64116 7.30172C4.98444 8.33841 3.62218 9.67787 2.5377 11.3157ZM11.9347 18.5081C13.8891 18.3337 15.7014 17.7364 17.3632 16.6953C19.0071 15.6706 20.4046 14.2955 21.456 12.6685C21.4644 12.7691 21.4771 12.8641 21.4793 12.9597C21.5038 13.8442 21.2777 14.6558 20.7671 15.3836C20.5571 15.6837 20.2987 15.9392 20.026 16.1808C19.3393 16.789 18.5618 17.2862 17.7215 17.6542C16.9102 18.0086 16.0579 18.2599 15.1842 18.4021C14.3352 18.5426 13.4738 18.5944 12.6141 18.557C12.3875 18.5476 12.1613 18.5248 11.9347 18.5081Z" fill="#ED9D72"/>
<path d="M10.9722 11.4446C10.89 11.4446 10.8889 11.4435 10.8889 11.3618C10.8889 10.9607 10.89 10.8096 10.8889 10.4085C10.8889 10.3562 10.8978 10.3302 10.9594 10.3307C11.654 10.3324 12.3834 10.3285 13.0779 10.3334C13.4296 10.3363 13.634 10.443 13.6668 10.7556C13.7096 11.1513 13.485 11.3912 13.1523 11.4374C13.0973 11.4452 13.0412 11.4446 12.9856 11.4446C12.8284 11.4457 12.6712 11.4446 12.514 11.4446H10.9722ZM12.0506 12.5579L13.0801 12.5591C13.3628 12.5647 13.5757 12.6535 13.6668 12.9203C13.799 13.308 13.424 13.6702 13.0556 13.6702C12.3734 13.6713 11.6555 13.6702 10.9739 13.6702C10.8884 13.6702 10.8889 13.6702 10.8889 13.5853C10.8887 13.2589 10.8877 12.9326 10.8855 12.6063C10.885 12.5547 10.9134 12.5557 10.9489 12.5557C11.3045 12.5557 11.6951 12.5579 12.0506 12.5579Z" fill="#4A5EE0"/>
</svg>

<svg xmlns="http://www.w3.org/2000/svg" width="24" height="24" fill="none" viewBox="0 0 24 24">
    <path fill="#4A5EE0" d="M20.952 16.404c-.066.126-.126.247-.19.366a10 10 0 0 1-4.572 4.302 9.95 9.95 0 0 1-4.549.922A9.9 9.9 0 0 1 5.88 19.91a10 10 0 0 1-2.972-3.745 3.2 3.2 0 0 1-.257-.972 2.1 2.1 0 0 1 .065-.823c.112-.377.342-.666.672-.875.283-.18.588-.29.93-.278.33.012.617.138.877.333.291.219.505.5.694.809q.6.984 1.357 1.853a9.5 9.5 0 0 0 2.088 1.806c.59.369 1.223.66 1.887.867a9.1 9.1 0 0 0 3.036.384 10 10 0 0 0 1.939-.29 12 12 0 0 0 1.591-.514 10.5 10.5 0 0 0 1.787-.907c.503-.324.973-.687 1.358-1.15zM3.05 7.588c.078-.145.152-.292.232-.435a10 10 0 0 1 2.163-2.684 9.9 9.9 0 0 1 5-2.346 10.2 10.2 0 0 1 2.052-.112 9.9 9.9 0 0 1 3.916 1.007c1.884.93 3.43 2.428 4.418 4.283.194.363.372.733.46 1.14.075.35.103.7.029 1.051a1.52 1.52 0 0 1-.678.991 1.7 1.7 0 0 1-.75.29 1.4 1.4 0 0 1-.919-.213c-.354-.216-.615-.52-.83-.871a13.3 13.3 0 0 0-1.7-2.244 8.9 8.9 0 0 0-2.37-1.805 8 8 0 0 0-2.05-.726 9.3 9.3 0 0 0-2.3-.186c-.536.023-1.065.1-1.589.214a12 12 0 0 0-2.117.67c-.783.33-1.528.731-2.199 1.258a5 5 0 0 0-.735.7l-.023.024z"/>
    <path fill="#4A5EE0" d="M12.001 7.395c2.53-.004 4.578 2.05 4.597 4.566.02 2.573-2.06 4.694-4.594 4.695-2.538.002-4.584-2.11-4.602-4.627-.017-2.536 2.042-4.642 4.6-4.634M14.214 12l.023-.03q.38-.398.445-.946a1.6 1.6 0 0 0-.228-1.046c-.257-.413-.821-.664-1.298-.76-.04-.008-.046-.026-.045-.063.003-.104-.002-.324 0-.427 0-.048-.018-.065-.066-.064-.281.001-.709.007-.99.005-.045 0-.056.018-.055.058.002.094-.003.338 0 .432.001.047-.016.066-.065.066-.43-.001-.555-.004-.985-.004-.046 0-.062-.019-.061-.062v-.432c0-.041-.014-.062-.062-.061a109 109 0 0 1-.99 0c-.047 0-.062.018-.061.061.002.09-.002.33.002.42.002.057-.018.075-.075.074-.172-.002-.246 0-.418 0-.034 0-.063-.004-.062.05.002.28.002.707-.001.988 0 .062.022.077.08.076.167-.004.238.003.405 0 .054 0 .07.018.07.072 0 1.183-.001 2 0 3.183 0 .063-.02.077-.077.076-.173-.003-.247-.001-.419-.002-.034 0-.06.002-.06.049 0 .288 0 .721-.002 1.01 0 .035.01.056.05.054.054-.003.188 0 .241 0h.206c.046 0 .065.027.063.072-.003.089.003.33 0 .42-.001.053.016.064.07.064q.487-.005.973 0c.05 0 .067-.018.067-.065-.001-.093.002-.333 0-.426-.001-.043.01-.065.052-.065h.843l.143.001c.053 0 .078.018.074.078-.005.093 0 .333-.001.426 0 .037.013.05.052.05h1.002c.04 0 .057-.012.057-.053-.001-.105.003-.327 0-.432-.002-.044.012-.06.055-.071.106-.028.404-.055.505-.095a1.64 1.64 0 0 0 .543-2.68"/>
    <path fill="#ED9D72" d="M2.538 11.316c-.007-.146-.02-.292-.02-.438q.002-.72.254-1.395a3.9 3.9 0 0 1 1.022-1.502A8.8 8.8 0 0 1 5.84 6.55a10 10 0 0 1 2.088-.77q.74-.183 1.498-.27a12 12 0 0 1 2.204-.057c.137.01.275.026.413.04.008 0 .015.004.03.008-1.96.164-3.77.76-5.432 1.8a13.4 13.4 0 0 0-4.103 4.014m9.397 7.192a12.1 12.1 0 0 0 5.428-1.813 13.2 13.2 0 0 0 4.093-4.027c.008.101.021.196.023.292.025.884-.201 1.696-.712 2.424-.21.3-.468.555-.741.797a8.8 8.8 0 0 1-2.305 1.473c-.81.355-1.663.606-2.537.748-.849.14-1.71.192-2.57.155-.227-.01-.453-.032-.68-.049"/>
    <path fill="#4A5EE0" d="M10.972 11.445c-.082 0-.083-.002-.083-.083v-.953c0-.053.009-.079.07-.078.695.001 1.424-.002 2.119.002.352.003.556.11.589.423.043.395-.182.635-.515.681q-.082.01-.166.008zm1.079 1.113 1.03.001c.282.006.495.095.586.361.132.388-.243.75-.611.75h-2.082c-.086 0-.085 0-.085-.085l-.003-.979c-.001-.051.027-.05.063-.05z"/>
</svg>
